elusive/linkedin.svg

<?xml version="1.0" encoding="UTF-8" standalone="no"?>
<!-- Generator: IcoMoon.io -->

<svg
   xmlns:dc="http://purl.org/dc/elements/1.1/"
   xmlns:cc="http://creativecommons.org/ns#"
   xmlns:rdf="http://www.w3.org/1999/02/22-rdf-syntax-ns#"
   xmlns:svg="http://www.w3.org/2000/svg"
   xmlns="http://www.w3.org/2000/svg"
   xmlns:sodipodi="http://sodipodi.sourceforge.net/DTD/sodipodi-0.dtd"
   xmlns:inkscape="http://www.inkscape.org/namespaces/inkscape"
   id="svg2"
   version="1.1"
   data-tags="remove-circle, cancel, close, remove, delete"
   height="1200"
   width="1200"
   data-du=""
   viewBox="0 0 1200 1200"
   inkscape:version="0.48.4 r9939"
   sodipodi:docname="linkedin.svg">
  <defs
     id="defs32">
    <pattern
       id="pattern13199"
       width="811.3138"
       patternUnits="userSpaceOnUse"
       patternTransform="translate(-1692.9959,113.8855)"
       height="483.7205">
      <path
         id="path13201"
         filter="url(#filter3767)"
         d="M241.8603,83.1823H569.4535A158.678,158.678 0 0 1 728.1315,241.8603V241.8603A158.678,158.678 0 0 1 569.4535,400.5382H241.8603A158.678,158.678 0 0 1 83.1823,241.8603V241.8603A158.678,158.678 0 0 1 241.8603,83.1823" />
    </pattern>
    <mask
       id="mask13195"
       maskUnits="userSpaceOnUse">
      <path
         id="path13197"
         d="m -957.1864,582.2458 40.9492,-299.4407 -144.6017,-8.9576 -10.2373,67.822 -12.7966,11.5169 -8.9576,216.2627 -65.2627,-21.7542 14.0763,-270.0085 -74.2204,-6.3983 -11.5169,28.1525 -14.0763,225.2203 -42.2288,-8.9576 2.5593,-250.8136 -6.3983,0 -7.678,-70.3814 -33.2712,1.2797 -1.2796,29.4322 -7.678,17.9153 -2.5593,189.3898 -26.8729,33.2712 2.5593,88.2966 40.9492,19.1949 34.5508,-46.0678 284.0848,76.7797 49.9068,-21.7542"
         inkscape:connector-curvature="0"
         style="fill:#ffffff;stroke:#000000" />
    </mask>
    <filter
       id="filter13191"
       y="-0.26210001"
       x="-0.12899999"
       width="1.2579"
       height="1.5242"
       color-interpolation-filters="sRGB">
      <feGaussianBlur
         id="feGaussianBlur13193"
         stdDeviation="34.659" />
    </filter>
    <inkscape:path-effect
       id="path-effect13189" />
  </defs>
  <sodipodi:namedview
     pagecolor="#ffffff"
     bordercolor="#666666"
     borderopacity="1"
     objecttolerance="10"
     gridtolerance="10"
     guidetolerance="10"
     inkscape:pageopacity="0"
     inkscape:pageshadow="2"
     inkscape:window-width="1535"
     inkscape:window-height="876"
     id="namedview30"
     showgrid="false"
     inkscape:zoom="0.52678571"
     inkscape:cx="809.57559"
     inkscape:cy="673.19002"
     inkscape:window-x="65"
     inkscape:window-y="24"
     inkscape:window-maximized="1"
     inkscape:current-layer="svg2" />
  <metadata
     id="metadata62">
    <rdf:RDF>
      <cc:Work
         rdf:about="">
        <dc:format>image/svg+xml</dc:format>
        <dc:type
           rdf:resource="http://purl.org/dc/dcmitype/StillImage" />
        <dc:title />
      </cc:Work>
    </rdf:RDF>
  </metadata>
  <path
     id="path13441"
     d="M -4.9999994e-7,1.0000001e-6 -4.9999994e-7,1200 1200,1200 1200,1.0000001e-6 l -1200.00000050000016,0 z M 294.28711,235.91296 c 47.52985,0.53556 94.34929,33.32556 96.38672,90.08814 1.01578,50.47429 -42.97055,88.92117 -97.63196,90.08765 l -1.31812,0 c -47.05734,-0.54304 -93.01243,-34.1557 -95.14172,-90.08765 0.67079,-49.9132 42.62742,-88.90407 97.70508,-90.08814 z m 509.91211,238.47658 c 52.25531,0.32391 101.57273,15.82594 142.08984,57.1289 42.10757,46.96008 55.62374,111.7104 57.12894,177.53906 l 0,299.4141 -172.55863,0 0,-279.05254 c -0.3832,-52.30171 -18.29883,-115.87686 -87.52454,-117.99328 -40.571,0.43078 -69.17928,24.00657 -88.76952,63.42774 -5.3468,12.68695 -6.11813,27.27328 -6.37195,41.82117 l 0,291.79691 -172.48524,0 c 0.66,-145.87668 1.56704,-291.743 1.245,-437.62199 0,-41.43796 -0.39913,-69.33984 -1.245,-83.71569 l 172.48524,0 0,73.53515 c 14.64023,-20.82376 30.87867,-40.57172 52.66101,-56.46984 29.54367,-21.08485 65.03391,-29.16751 103.34485,-29.80969 z m -597.43641,12.74438 172.48524,0 0,521.33768 -172.48524,0 0,-521.33768 z"
     inkscape:connector-curvature="0" />
</svg>

<?xml version="1.0" encoding="utf-8"?>
<!-- Generator: Adobe Illustrator 13.0.0, SVG Export Plug-In . SVG Version: 6.00 Build 14948)  -->
<!DOCTYPE svg PUBLIC "-//W3C//DTD SVG 1.1//EN" "http://www.w3.org/Graphics/SVG/1.1/DTD/svg11.dtd">
<svg version="1.1"
	 id="svg2" inkscape:version="0.48.4 r9939" sodipodi:docname="linkedin.svg" xmlns:dc="http://purl.org/dc/elements/1.1/" xmlns:cc="http://creativecommons.org/ns#" xmlns:rdf="http://www.w3.org/1999/02/22-rdf-syntax-ns#" xmlns:svg="http://www.w3.org/2000/svg" xmlns:sodipodi="http://sodipodi.sourceforge.net/DTD/sodipodi-0.dtd" xmlns:inkscape="http://www.inkscape.org/namespaces/inkscape"
	 xmlns="http://www.w3.org/2000/svg" xmlns:xlink="http://www.w3.org/1999/xlink" x="0px" y="0px" width="1200px" height="1200px"
	 viewBox="0 0 1200 1200" enable-background="new 0 0 1200 1200" xml:space="preserve">
<path id="path13441" inkscape:connector-curvature="0" d="M0,0v1200h1200V0H0z M294.287,235.913
	c47.53,0.535,94.35,33.325,96.387,90.088c1.016,50.475-42.971,88.921-97.632,90.088h-1.318
	c-47.057-0.543-93.012-34.156-95.142-90.088C197.253,276.088,239.209,237.097,294.287,235.913z M804.199,474.39
	c52.255,0.324,101.572,15.826,142.09,57.129c42.107,46.96,55.624,111.71,57.129,177.539v299.414H830.859V729.419
	c-0.383-52.302-18.299-115.877-87.524-117.993c-40.571,0.431-69.18,24.007-88.77,63.428c-5.347,12.687-6.118,27.273-6.372,41.821
	v291.797H475.708c0.66-145.877,1.567-291.743,1.245-437.622c0-41.438-0.399-69.34-1.245-83.716h172.485v73.535
	c14.641-20.823,30.879-40.571,52.661-56.47C730.398,483.114,765.889,475.031,804.199,474.39z M206.763,487.134h172.485v521.338
	H206.763V487.134L206.763,487.134z"/>
</svg>
